X: 28128
T: Mrs Crehan's
R: reel
M: 4/4
K: Gmajor
G2dG eGdG|G2dG ABdB|G2dG eGdG|EGAB cedB|
G2dG eGdG|G2dG ABdB|G2dG eGdG|EGAB cege||
d2Bd GdBd|GdBd cA~A2|d2Bd GdBd|ceAc BGG2|
d2Bd gdBd|GABG AE~E2|GABc dedc|BdAd BGG2||

